X:1
T:Title
%%score ( 1 2 ) 3
L:1/8
M:4/4
K:C
V:1 treble nm="Choir Aahs, Staff"
V:2 treble 
V:3 bass nm="Choir Aahs, Staff-1"
V:1
 c3 c B2 A2 | G2 A2 G2 E2 | [DG]3 [EG] [FG]2 [EG]2 | [DA]2 [Ac]2 [GB]4 | c3 c B2 A2 | G2 A2 G2 E2 | %6
w: By~John~Richards~(Isalaw) * * *||||||
 [Ge]3 [Fd] [Gc]2 [Fd]2 | [EG]2 [FB]2 [Ec]4 | [EA]2 E2 [Ec]2 [EB]2 | [EA]2 [E^G]2 [EA]2 E2 | %10
w: ||||
 A2 E2 [Ee]2 [Fd]2 | [Ec]2 [DB]2 [CA]4 | [EB]2 [EB]2 [Ec]2 [^Fc]2 | [Gd]2 [Gd]2 [Ge]2 [Ge]2 | %14
w: ||||
 [Ac]4 [Ec]4 | [Fc]4 [FA]4 | z4 d4 | [Ec]8 |] %18
w: ||||
V:2
 x8 | x8 | x8 | x8 | x8 | x8 | x8 | x8 | x8 | x8 | x8 | x8 | x8 | x8 | x8 | x8 | [Ec]4 G2 F2 | %17
 x8 |] %18
V:3
 C3 C B,2 A,2 | G,2 A,2 G,2 E,2 | [B,,G,]3 [C,C] [D,B,]2 [E,^C]2 | [F,D]2 [^F,D]2 [G,D]4 | %4
 C3 C B,2 A,2 | G,2 A,2 G,2 E,2 | [C,C]3 [D,B,] [E,C]2 [F,A,]2 | [G,C]2 [G,D]2 [C,C]4 | %8
 [A,C]2 [^G,B,]2 A,2 [E,G,]2 | [A,C]2 [E,B,]2 [A,C]2 [^G,B,]2 | A,2 E,2 [C,A,]2 [D,A,]2 | %11
 [E,A,]2 [E,^G,]2 [A,,A,]4 | [E,A,]2 [E,^G,]2 A,2 [A,C]2 | [G,C]2 [G,B,]2 C2 C2 | [A,E]4 [A,C]4 | %15
 [F,A,]4 [F,C]4 | [G,C]4 [G,B,]4 | [C,C]8 |] %18

